X:1
T:Knolton's Quickstep
B:New England Collection of Martial Music
M:2/4
L:1/8
Q:1/8=180
K:G
|: D|GB/G/ F/A/F/D/|G/A/B/c/ d/B/ c/A/|G B/G/ F/A/F/D/|GBG D|GB/G/ F/A/F/D/|G/A/B/c/ d/B/ c/A/|GB/G/ F/A/F/D/|GBG :|
|: c|d/B/d/B/ G/B/G/B/|e/c/e/c/ A/c/A/c/|d/B/d/B/ G/B/G/B/|F/G/A/G/ FD|d/B/d/B/ G/B/G/B/|e/c/e/c/ A/c/A/c/|A/B/d/B/ c/A/F/D/|GBG:|
